listing-page/src/static/img-loading-placeholder.svg

<?xml version="1.0" encoding="UTF-8"?>
<svg width="107px" height="113px" viewBox="0 0 107 113" version="1.1" xmlns="http://www.w3.org/2000/svg" xmlns:xlink="http://www.w3.org/1999/xlink">
    <!-- Generator: Sketch 46.2 (44496) - http://www.bohemiancoding.com/sketch -->
    <title>Fill 1</title>
    <desc>Created with Sketch.</desc>
    <defs></defs>
    <g id="All" stroke="none" stroke-width="1" fill="none" fill-rule="evenodd">
        <path d="M5.0005,112.5625 C4.0565,112.5625 3.1165,112.2945 2.2975,111.7685 C0.8655,110.8495 0.0005,109.2645 0.0005,107.5625 L0.0005,4.9995 C0.0005,3.2975 0.8655,1.7125 2.2975,0.7935 C3.7295,-0.1255 5.5295,-0.2545 7.0785,0.4525 L49.8025,19.9735 C52.3145,21.1215 53.4195,24.0875 52.2725,26.5995 C51.1255,29.1115 48.1585,30.2165 45.6465,29.0695 L10.0005,12.7825 L10.0005,99.7815 L59.8435,77.0065 L59.8435,32.0125 C59.8435,29.7635 61.3455,27.7915 63.5125,27.1935 L100.6185,16.9465 C102.1255,16.5315 103.7365,16.8425 104.9785,17.7875 C106.2205,18.7325 106.9495,20.2045 106.9495,21.7655 L106.9495,89.2045 C106.9495,90.7315 106.2515,92.1735 105.0555,93.1235 C103.8575,94.0715 102.2935,94.4215 100.8075,94.0725 L80.7015,89.3565 C78.0135,88.7255 76.3445,86.0355 76.9755,83.3465 C77.6055,80.6575 80.2985,78.9915 82.9845,79.6205 L96.9495,82.8955 L96.9495,28.3335 L69.8435,35.8195 L69.8435,80.2195 C69.8435,82.1765 68.7015,83.9545 66.9215,84.7675 L7.0785,112.1105 C6.4155,112.4135 5.7065,112.5625 5.0005,112.5625" id="Fill-1" fill="#DBDCDC"></path>
    </g>
</svg>

<svg width="107" height="113" xmlns="http://www.w3.org/2000/svg"><path d="M5 112.563a5.001 5.001 0 0 1-5-5V4.999C0 3.298.866 1.713 2.298.794A5.003 5.003 0 0 1 7.08.451l42.724 19.521a5 5 0 0 1-4.156 9.097L10 12.783V99.78l49.843-22.775V32.014a5 5 0 0 1 3.669-4.82l37.105-10.247a4.999 4.999 0 0 1 6.331 4.819v67.44a5.003 5.003 0 0 1-6.142 4.868l-20.106-4.716a5 5 0 0 1 2.284-9.736l13.965 3.275V28.332L69.844 35.82v44.4a5 5 0 0 1-2.922 4.549L7.078 112.11a4.996 4.996 0 0 1-2.079.451" fill="#DBDCDC" fill-rule="evenodd"/></svg>
